X: 487
T:Follow Me Up
C:Traditional
D:Cran, The Crooked Stair
Z:Gordon Turnbull, Edinburgh
R:reel
M:C
L:1/8
Q:350
N:Posted to the woodenflute mailing list January 2002
K:ADor
ABAG EGA{B}G | A{BA}GAB d3 B | ABAG EGBd | ge{g}ed BA A2 :||
agea gedB | ABAG EG G2 | agea gedB | GBdB {c}BA A2 |
agea gedB | ABAG EG G2 | A{BA}GAB d2 de | ge{g}ed BAAG |]

